svgs/1F630.svg

<svg xmlns="http://www.w3.org/2000/svg" xmlns:xlink="http://www.w3.org/1999/xlink" preserveAspectRatio="none" viewBox="0 0 72 72"><defs><linearGradient id="a" x1="63.85" x2="63.85" y1="65.688" y2="3.313" gradientUnits="userSpaceOnUse" spreadMethod="pad"><stop offset="0%" stop-color="#FCC21B"/><stop offset="15.294%" stop-color="#E5BF34"/><stop offset="47.451%" stop-color="#ABB973"/><stop offset="93.333%" stop-color="#4FAFD8"/><stop offset="100%" stop-color="#42ADE7"/></linearGradient><path id="b" fill="url(#a)" d="M127.55 92.35q0-27-8.5-47.05-15.6-36.65-55.3-36.65Q24.1 8.65 8.5 45.3 0 65.35 0 92.35q0 10.4 18.7 17.7 18.65 7.35 45.05 7.35 26.45 0 45.1-7.35 18.7-7.3 18.7-17.7z"/><path id="c" fill="#ED6C30" d="M92.9 95.7q.5-4.3-2.1-9.2-3.65-6.9-9.9-10.4-5.5-3.1-13.75-3.95L64 72q-2.2.1-3.2.2-8.2.85-13.7 3.95-6.3 3.5-9.95 10.35-2.6 4.9-2.1 9.2.5 4.35 4.1 6.85 1.75 1.2 5 1.3 2.9.15 5.4-.65 1.7-.5 5.65-1.85 3.8-1.1 7.15-1.15h3.2q3.4.05 7.2 1.15 2.1.6 5.65 1.85 2.5.8 5.45.65 3.2-.1 4.95-1.3 3.6-2.5 4.1-6.85z"/><path id="d" fill="#2F2F2F" d="M27.3 32.9q0-2.3-1.35-3.9-1.3-1.6-3.2-1.6-1.9 0-3.2 1.6-1.35 1.6-1.35 3.9 0 2.25 1.35 3.85t3.2 1.6q1.9 0 3.2-1.6 1.35-1.6 1.35-3.85z"/><path id="e" fill="#2F2F2F" d="M46.35 29Q45 30.6 45 32.9q0 2.25 1.35 3.85t3.2 1.6q1.9 0 3.2-1.6 1.35-1.6 1.35-3.85 0-2.3-1.35-3.9-1.3-1.6-3.2-1.6-1.9 0-3.2 1.6z"/><path id="f" fill="#40C0E7" d="M10.65 5.5Q7.2 9 4.7 15.1q-2.4 6.05 0 10.05Q7.2 29 10.65 29q3.5 0 6-3.85 2.4-4 0-10.05-2.5-6.1-6-9.6z"/><path id="g" fill="none" stroke="#2F2F2F" stroke-linecap="round" stroke-linejoin="round" stroke-width="3" d="M56.45 25.1L55.3 25q-4-.35-5.5-1.85-1.15-1.4-1.65-2.45M15.9 25.1q4.9-.2 6.65-1.95 1.15-1.4 1.65-2.45"/></defs><use transform="scale(.56248)" xlink:href="#b"/><use transform="matrix(.46198 0 0 .37044 6.4 17.9)" xlink:href="#c"/><use transform="matrix(1.0669 0 0 1.0669 -1.35 -.25)" xlink:href="#d"/><use transform="matrix(1.0669 0 0 1.0669 -3.75 -.25)" xlink:href="#e"/><use transform="translate(.9 33.15) scale(1.10623)" xlink:href="#f"/><use transform="translate(-.1 -2.2)" xlink:href="#g"/></svg>

<svg xmlns="http://www.w3.org/2000/svg" version="1.1" xmlns:xlink="http://www.w3.org/1999/xlink" preserveAspectRatio="none" x="0px" y="0px" width="72px" height="72px" viewBox="0 0 72 72">
<defs>
<linearGradient id="Gradient_1" gradientUnits="userSpaceOnUse" x1="63.85" y1="65.6875" x2="63.85" y2="3.3125" spreadMethod="pad">
<stop  offset="0%" stop-color="#FCC21B"/>

<stop  offset="15.294117647058824%" stop-color="#E5BF34"/>

<stop  offset="47.450980392156865%" stop-color="#ABB973"/>

<stop  offset="93.33333333333333%" stop-color="#4FAFD8"/>

<stop  offset="100%" stop-color="#42ADE7"/>
</linearGradient>

<g id="Layer0_0_MEMBER_0_FILL">
<path fill="url(#Gradient_1)" stroke="none" d="
M 127.55 92.35
Q 127.55 65.35 119.05 45.3 103.45 8.65 63.75 8.65 24.1 8.65 8.5 45.3 0 65.35 0 92.35 0 102.75 18.7 110.05 37.35 117.4 63.75 117.4 90.2 117.4 108.85 110.05 127.55 102.75 127.55 92.35 Z"/>
</g>

<g id="Layer0_1_FILL">
<path fill="#ED6C30" stroke="none" d="
M 92.9 95.7
Q 93.4 91.4 90.8 86.5 87.15 79.6 80.9 76.1 75.4 73 67.15 72.15
L 64 72
Q 61.8 72.1 60.8 72.2 52.6 73.05 47.1 76.15 40.8 79.65 37.15 86.5 34.55 91.4 35.05 95.7 35.55 100.05 39.15 102.55 40.9 103.75 44.15 103.85 47.05 104 49.55 103.2 51.25 102.7 55.2 101.35 59 100.25 62.35 100.2
L 65.55 100.2
Q 68.95 100.25 72.75 101.35 74.85 101.95 78.4 103.2 80.9 104 83.85 103.85 87.05 103.75 88.8 102.55 92.4 100.05 92.9 95.7 Z"/>
</g>

<g id="Layer0_2_MEMBER_0_FILL">
<path fill="#2F2F2F" stroke="none" d="
M 27.3 32.9
Q 27.3 30.6 25.95 29 24.65 27.4 22.75 27.4 20.85 27.4 19.55 29 18.2 30.6 18.2 32.9 18.2 35.15 19.55 36.75 20.9 38.35 22.75 38.35 24.65 38.35 25.95 36.75 27.3 35.15 27.3 32.9 Z"/>
</g>

<g id="Layer0_2_MEMBER_1_FILL">
<path fill="#2F2F2F" stroke="none" d="
M 46.35 29
Q 45 30.6 45 32.9 45 35.15 46.35 36.75 47.7 38.35 49.55 38.35 51.45 38.35 52.75 36.75 54.1 35.15 54.1 32.9 54.1 30.6 52.75 29 51.45 27.4 49.55 27.4 47.65 27.4 46.35 29 Z"/>
</g>

<g id="Layer0_3_FILL">
<path fill="#40C0E7" stroke="none" d="
M 10.65 5.5
Q 7.2 9 4.7 15.1 2.3 21.15 4.7 25.15 7.2 29 10.65 29 14.15 29 16.65 25.15 19.05 21.15 16.65 15.1 14.15 9 10.65 5.5 Z"/>
</g>

<path id="Layer0_4_1_STROKES" stroke="#2F2F2F" stroke-width="3" stroke-linejoin="round" stroke-linecap="round" fill="none" d="
M 56.45 25.1
L 55.3 25
Q 51.3 24.65 49.8 23.15 48.65 21.75 48.15 20.7
M 15.9 25.1
Q 20.8 24.9 22.55 23.15 23.7 21.75 24.2 20.7"/>
</defs>

<g id="Layer_1">
<g transform="matrix( 0.5624847412109375, 0, 0, 0.5624847412109375, 0,0) ">
<use xlink:href="#Layer0_0_MEMBER_0_FILL"/>
</g>

<g transform="matrix( 0.46197509765625, 0, 0, 0.3704376220703125, 6.4,17.9) ">
<use xlink:href="#Layer0_1_FILL"/>
</g>

<g transform="matrix( 1.06689453125, 0, 0, 1.06689453125, -1.35,-0.25) ">
<use xlink:href="#Layer0_2_MEMBER_0_FILL"/>
</g>

<g transform="matrix( 1.06689453125, 0, 0, 1.06689453125, -3.75,-0.25) ">
<use xlink:href="#Layer0_2_MEMBER_1_FILL"/>
</g>

<g transform="matrix( 1.106231689453125, 0, 0, 1.106231689453125, 0.9,33.15) ">
<use xlink:href="#Layer0_3_FILL"/>
</g>

<g transform="matrix( 1, 0, 0, 1, -0.1,-2.2) ">
<use xlink:href="#Layer0_4_1_STROKES"/>
</g>
</g>
</svg>
